X: 16233
T: Greensleeves
R: jig
M: 6/8
K: Adorian
|:B|c2c c>de|dBG G>AB|c2A A>Bc|BGEE3
c2c c>de|dBG G>AB|c>BA BAG|A3 A2:|
|:f|g2g g>fe|d>BG G2g|aea abc'|b2g e3
g2g g>fe|d>BG GAB|c>BA B^G2|A3 A2:|
|:c/d/|ecA ecA|dBG dBG|ecA ecA|BGE BGE
gec gec|d>BG GAB|c>BA B^G2|A3 A2:|

